packages/kaspersky-hexa-ui-icons/src/iconsSVGs/16/StatusPauseSolid.svg

<svg width="16" height="16" viewBox="0 0 16 16" fill="none" xmlns="http://www.w3.org/2000/svg">
<path fill-rule="evenodd" clip-rule="evenodd" d="M15 8C15 11.866 11.866 15 8 15C4.13401 15 1 11.866 1 8C1 4.13401 4.13401 1 8 1C11.866 1 15 4.13401 15 8ZM5.49902 6.25C5.49902 5.83579 5.83481 5.5 6.24902 5.5C6.66324 5.5 6.99902 5.83579 6.99902 6.25V9.75C6.99902 10.1642 6.66324 10.5 6.24902 10.5C5.83481 10.5 5.49902 10.1642 5.49902 9.75V6.25ZM9.75098 5.5C9.33676 5.5 9.00098 5.83579 9.00098 6.25V9.75C9.00098 10.1642 9.33676 10.5 9.75098 10.5C10.1652 10.5 10.501 10.1642 10.501 9.75V6.25C10.501 5.83579 10.1652 5.5 9.75098 5.5Z" fill="black"/>
</svg>

<svg xmlns="http://www.w3.org/2000/svg" width="16" height="16" fill="none" viewBox="0 0 16 16"><path fill="#000" fill-rule="evenodd" d="M15 8c0 3.866-3.134 7-7 7s-7-3.134-7-7 3.134-7 7-7 7 3.134 7 7M5.499 6.25a.75.75 0 0 1 1.5 0v3.5a.75.75 0 0 1-1.5 0zm4.252-.75a.75.75 0 0 0-.75.75v3.5a.75.75 0 0 0 1.5 0v-3.5a.75.75 0 0 0-.75-.75"/></svg>
